X: 31
%%scale 0.7
T: Gloucester Hornpipe
C: Traditional
O: England
R: hornpipe
M: 4/4
L: 1/8
K: Gmaj
|:(3DEF|"G" G2g2g2 d>B|"C" c>Bc>d e>fg>e|"G" d>BG>B "(Am)" e>dc>B|"D" A>Bc>A G>FE>D|
"G" G2g2g2 d>B|"C" c>Bc>d e>f (3gfe|"G" d>BG>B "C" e>c "D" A>F|"G" G2 G2 G2:|
|:(3FGA|"G" B3A B>cd>B|"C" c>Bc>d e>fg>e|"G" d>BG>B "(Am)" e>dc>B|"D" A>Bc>A G>FE>D|
"G" B2 B>A B>cd>B|"C" c>Bc>d e>f (3gfe|"G" d>BG>B "C" e>c "D" A>F|"G" G2 G2 G2:|

